X:556
M:C|
L:1/8
K:E Minor
e(EE)F GAB^c|dABG FDAF|GEAF BGcA|BAGF GEE||
dAfd afdf|geaf bgaf|gef^d e/e/e e||

